symbols/web/rule/materialsymbolsrounded/rule_wght700grad200_20px.svg

<svg xmlns="http://www.w3.org/2000/svg" height="20" width="20"><path d="m14.021 5.458 2.167-2.187q.416-.417 1.052-.438.635-.021 1.052.438.416.396.416 1.01 0 .615-.437 1.011l-3.188 3.229q-.395.417-1.041.417-.646 0-1.042-.396l-1.75-1.813q-.438-.417-.438-1t.438-1q.417-.437 1-.437t1 .437ZM2.542 7.646q-.584 0-1.021-.438-.438-.437-.438-1.02 0-.584.438-1.021.437-.438 1.021-.438h5.166q.584 0 1.021.438.438.437.438 1.021 0 .583-.438 1.02-.437.438-1.021.438Zm11.583 8.208-1.167 1.125q-.416.438-1 .438-.583 0-1-.438-.437-.417-.437-1t.437-1l1.125-1.167-1.125-1.166q-.437-.417-.437-1 0-.584.437-1 .417-.438 1-.438.584 0 1 .438l1.167 1.125 1.167-1.125q.416-.438 1-.438.583 0 1 .438.437.416.437 1 0 .583-.437 1l-1.125 1.166 1.125 1.167q.437.417.437 1t-.437 1q-.417.438-1 .438-.584 0-1-.438Zm-11.583-.583q-.584 0-1.021-.438-.438-.437-.438-1.021 0-.583.438-1.02.437-.438 1.021-.438h5.166q.584 0 1.021.438.438.437.438 1.02 0 .584-.438 1.021-.437.438-1.021.438Z"/></svg>

<svg xmlns="http://www.w3.org/2000/svg" height="20" width="20"><path d="M14.021 5.458 16.188 3.271Q16.604 2.854 17.24 2.833Q17.875 2.812 18.292 3.271Q18.708 3.667 18.708 4.281Q18.708 4.896 18.271 5.292L15.083 8.521Q14.688 8.938 14.042 8.938Q13.396 8.938 13 8.542L11.25 6.729Q10.812 6.312 10.812 5.729Q10.812 5.146 11.25 4.729Q11.667 4.292 12.25 4.292Q12.833 4.292 13.25 4.729ZM2.542 7.646Q1.958 7.646 1.521 7.208Q1.083 6.771 1.083 6.188Q1.083 5.604 1.521 5.167Q1.958 4.729 2.542 4.729H7.708Q8.292 4.729 8.729 5.167Q9.167 5.604 9.167 6.188Q9.167 6.771 8.729 7.208Q8.292 7.646 7.708 7.646ZM14.125 15.854 12.958 16.979Q12.542 17.417 11.958 17.417Q11.375 17.417 10.958 16.979Q10.521 16.562 10.521 15.979Q10.521 15.396 10.958 14.979L12.083 13.812L10.958 12.646Q10.521 12.229 10.521 11.646Q10.521 11.062 10.958 10.646Q11.375 10.208 11.958 10.208Q12.542 10.208 12.958 10.646L14.125 11.771L15.292 10.646Q15.708 10.208 16.292 10.208Q16.875 10.208 17.292 10.646Q17.729 11.062 17.729 11.646Q17.729 12.229 17.292 12.646L16.167 13.812L17.292 14.979Q17.729 15.396 17.729 15.979Q17.729 16.562 17.292 16.979Q16.875 17.417 16.292 17.417Q15.708 17.417 15.292 16.979ZM2.542 15.271Q1.958 15.271 1.521 14.833Q1.083 14.396 1.083 13.812Q1.083 13.229 1.521 12.792Q1.958 12.354 2.542 12.354H7.708Q8.292 12.354 8.729 12.792Q9.167 13.229 9.167 13.812Q9.167 14.396 8.729 14.833Q8.292 15.271 7.708 15.271Z"/></svg>
